!!!COM: Martin, Frank
!!!OTL: Trio sur des mélodies populaires irlandaises (Trio on Popular Irish Melodies) for Violin, Violincello and Piano
!!!OMV: III: Gigue
!!!example: 541
!!!work: Mai-11
**kern	**kern	**kern	**kern
*part3	*part3	*part2	*part1
*staff4	*staff3	*staff2	*staff1
*I"Piano	*	*I"Viola	*I"Violin
*I'Pno.	*	*I'Vla.	*I'Vln.
*clefF4	*clefG2	*clefC3	*clefG2
*k[f#c#g#d#]	*k[f#c#g#d#]	*k[f#c#g#d#]	*k[f#c#g#d#]
*E:	*E:	*E:	*E:
*M6/8	*M6/8	*M6/8	*M6/8
*MM216	*MM216	*MM216	*MM216
=79	=79	=79	=79
8DD#X^^ 8AA 8BB	8BnL 8d#X	8d#L	8ff#L
8r	8c# 8e	8d#	8ee
8r	8d#J 8f#	8d#J	8dd#J
4r	8c#L 8e	8d#L	8eeL
.	8d# 8f#	8d#	8dd#
8DD#X^^ 8AA 8BB	8eJ 8g#	8d#J	8cc#J
=80	=80	=80	=80
8r	8d#L 8f#	8d#L	8dd#L
8r	8e 8g#	8d#	8cc#
8DD#X^^ 8AA 8BB	8f#J 8a#X	8d#J	8bJ
8r	8eL 8g#	8d#L	8cc#L
8r	8f# 8a#	8d#	8a#X
8r	8g#J 8b	8d#J	8f#J
=81	=81	=81	=81
4r	8anL 8cc#	8d#L	8f#L
.	8b 8dd#	8e	8f#
8r	8cc#J 8ee	8f#J	8f#J
8r	8r	4.g#^	4.an^
8AAA^^ 8AA 8BB	8cc#L 8ee 8gg#	.	.
8r	8dd#J 8ff#	.	.
=82	=82	=82	=82
8DDn^^ 8AA 8BB	8b 8dd#X 8ff#	8d#L	8f#L
8r	8r	8e	8f#
8r	8r	8f#J	8f#J
8r	8r	4.g#^	4.a^
8AAA^^ 8AA 8BB	8c#L 8e 8g#	.	.
8r	8d#J 8f#	.	.
=83	=83	=83	=83
8AAA^^ 8AA 8BB	8Bn^^ 8d#X 8f#	8d#L	8ff#L
8r	8r	8d#	8ee
8r	8r	8d#J	8dd#J
4r	4r	8d#L	8eeL
.	.	8d#	8dd#
8Dn 8A	8Bn^^ 8d#X 8f#	8d#J	8cc#J
=84	=84	=84	=84
4r	4r	8d#L	8dd#L
.	.	8d#	8cc#
8Dn 8A	8Bn^^ 8d#X 8f#	8d#J	8bJ
4.r	4.r	8d#L	8cc#L
.	.	8d#	8a#X
.	.	8d#J	8f#J
=85	=85	=85	=85
4r	4r	8d#L	8f#L
.	.	8e	8f#
8r	8r	8f#J	8f#J
8r	8r	4.g#^	4.an^
8AA^^ 8A 8B	(8c#^^L 8e 8g#	.	.
8r	8d#J) 8f#	.	.
=86	=86	=86	=86
8Dn^^ 8A 8B	8B^^ 8d#X 8f#	8d#L	8f#L
8r	8r	8e	8f#
8r	8r	8f#J	8f#J
8r	8r	8g#^L	8a^L
8AA^^ 8A 8B	8c#^^ 8e 8g#	8f#	8f#
8r	8r	8eJ	8eJ
=87	=87	=87	=87
8Dn^^ 8A 8B	8B^^ 8d#X 8f#	4d#^	(8f#L
8r	8r	.	8b')
8r	8r	4e^	8b'J
8r	8r	.	(8f#L
8AA^^ 8A 8B	8r	4f#^	8b')
8r	8B^^ 8d# 8f#	.	8b'J
=88	=88	=88	=88
8r	8r	([4.g#^	(8.cc#L
8AA^^ 8A 8B	8c#^^ 8e 8g#	.	.
.	.	.	16dd#L
8r	8r	.	16cc#
.	.	.	16bJJ)
8r	8r	8g#L]	(4an^
8AA^^ 8A 8B	(8c#^^L 8e 8g#	8f#	.
8r	8d#J) 8f#	8eJ)	8b)
=89	=89	=89	=89
8Dn^^ 8A 8B	8B^^ 8d#X 8f#	4d#^	(8cc#L
8r	8r	.	8ff#)
8r	8r	4e^	8ff#'J
8r	8r	.	(8eeL
8r	8r	4f#^	8cc#')
8D^^ 8A 8B	8B^^ 8d# 8f#	.	8bJ
=90	=90	=90	=90
8r	8r	(8g#^L	8cc#L
8Dn^^ 8A 8B	8B^^ 8d# 8f#	8f#)	8b
8r	8r	8e'J	8b'J
8r	8r	8d#'	8b'
8D^^ 8A 8B	(8d#^L 8f# 8b	8r	8r
8r	8cc#J)	8r	8r
=	=	=	=
*-	*-	*-	*-
!!!system-decoration: [(s1,s2)]{(s3,s4)}
!!!CDT: 1890/09/15-1974/11/21
!!!CBL: Geneva, Switzerland
!!!CDL: Naarden, Netherlands
!!!CNT: Swiss
!!!AGN: Instrumental; Chamber
!!!MCN:
!!!MDT: 1926/04/01
!!!MGN:
!!!MLC: Paris, France
!!!MPD: 1926
!!!MPN: Martin, Frank
!!!ODT: 1925
!!!PDT: 1955
!!!excerpt-start-measure: 79
!!!excerpt-end-measure: 90
!!!excerpt-start-time: 1:35
!!!excerpt-end-time: 1:46
!!!EEV: 2020/01/27
!!!ONB: Converted from MusicXML on 2020/01/27
